icons/braces.svg

<svg width="24" height="24" viewBox="0 0 24 24" fill="none" xmlns="http://www.w3.org/2000/svg">
<path d="M7 4C6.46957 4 5.96086 4.21071 5.58579 4.58579C5.21071 4.96086 5 5.46957 5 6V9C5 9.796 4.79 10.559 4.414 11.121C4.04 11.684 3.53 12 3 12C3.53 12 4.04 12.316 4.414 12.879C4.79 13.44 5 14.204 5 15V18C5 18.5304 5.21071 19.0391 5.58579 19.4142C5.96086 19.7893 6.46957 20 7 20" stroke="white" stroke-width="2" stroke-linecap="round" stroke-linejoin="round"/>
<path d="M17 4C17.5304 4 18.0391 4.21071 18.4142 4.58579C18.7893 4.96086 19 5.46957 19 6V9C19 9.796 19.21 10.559 19.586 11.121C19.961 11.684 20.47 12 21 12C20.47 12 19.96 12.316 19.586 12.879C19.21 13.44 19 14.204 19 15V18C19 18.5304 18.7893 19.0391 18.4142 19.4142C18.0391 19.7893 17.5304 20 17 20" stroke="white" stroke-width="2" stroke-linecap="round" stroke-linejoin="round"/>
</svg>

<svg
  width="24"
  height="24"
  viewBox="0 0 24 24"
  xmlns="http://www.w3.org/2000/svg"
  fill="none"
  stroke="currentColor"
  stroke-width="2"
  stroke-linecap="round"
  stroke-linejoin="round"
>
  <path d="M7 4a2 2 0 0 0-2 2v3c0 .796-.21 1.559-.586 2.121C4.04 11.684 3.53 12 3 12c.53 0 1.04.316 1.414.879C4.79 13.44 5 14.204 5 15v3a2 2 0 0 0 2 2" />
  <path d="M17 4a2 2 0 0 1 2 2v3c0 .796.21 1.559.586 2.121.375.563.884.879 1.414.879-.53 0-1.04.316-1.414.879C19.21 13.44 19 14.204 19 15v3a2 2 0 0 1-2 2" />
</svg>
